X:3186
T:Pretty Polly
F:http://www.vwml.org/record/CJS2/10/3186
S:SMr Frankland B Shelton at Allan Stand, July 31 1916
Z:Transcribed by Steve Wise, May 2016
M:3/4
L:1/4
K:C
C/2 E/2 | G G G/2 G/2 | G C>C | F E D | C2 (C/2E/2) | 
w:At the foot of yon-der moun-tain There runs a bold stream So_
F !fermata!G>F | G C C/2 C/2 | F E D | C2 c/2 c/2 | d !fermata!c G | 
w:fain I'd have mar-ried Pret-ty Pol-ly by name She is neat she was
_B2 F/2 F/2 | _B2 G/2 F/2 | C2 C | F G>G | G C C/2 C/2 | 
w:neat She's too neat to be-hold And rings round her fin-gers of the 
F E D | C2 |]
w:bright shi-ning gold

